X:38
T:Miss Rutherfoord's Jigg
S:Petrie's Collection of Strathspey Reels and Country Dances &c., 1790
Z:Steve Wyrick <sjwyrick'at'gmail'dot'com>, 3/19/04
N:Petrie's First Collection, page 17
L:1/8
M:6/8
R:Jig
K:A
"^Slow"
   E|EAA            A2 c/d/     |e>fe         ecA     |\
     B,BB           B2 B/c/     |d>ed          BGE    |
     EAA            A2 c/d/     |e>fe         ecA     |\
     Fdc            BGE         |AAA           A2    :|
c/d/|e>fg          Ta2g         |fed          cBA     |\
     dfe/d/         ced/c/      |dFB          {A}GFE  |
     e>fg          Ta2g         |fed          cBA     |\
     Fdc            BGE         |AAA           A2 f/g/|
     a3/2b/a/4g/4f/ e3/2f/e/d/  |cea {f}e{d}c{B}A     |\
     d/e/f/e/c/B/   c/d/e/c/B/A/|B/F/d/c/B/A/ {A}GFE  |
     CEA            Ace         |d/c/d/e/f/g/ a2 g/f/ |\
     ecA            B,fe/d/     |cAA           A2    |]
